dhis-2/dhis-support/dhis-support-system/src/main/resources/SVGs/clinical_f_negative.svg

<svg width="48" height="48" viewBox="0 0 48 48" fill="none" xmlns="http://www.w3.org/2000/svg">
<path fill-rule="evenodd" clip-rule="evenodd" d="M0 0V47.9994H47.9994V0H0ZM24.0287 4.97264C25.4287 4.97414 26.5817 6.07412 26.6477 7.47261H28.6856C29.2746 7.47261 29.7476 7.9478 29.7476 8.53699V8.77529H36.1385C37.1675 8.77529 37.9955 9.60308 37.9955 10.6329V41.1675C37.9955 42.1975 37.1675 43.0265 36.1385 43.0265H11.8609C10.8319 43.0265 10.0019 42.1975 10.0019 41.1675V10.6329C10.0019 9.60308 10.8319 8.77529 11.8609 8.77529H18.2498V8.53699C18.2498 7.9478 18.7228 7.47261 19.3118 7.47261H21.4097C21.4767 6.07412 22.6287 4.97414 24.0287 4.97264ZM23.9857 6.42372C23.3377 6.42332 22.8117 6.94911 22.8117 7.5976C22.8117 8.246 23.3377 8.77179 23.9857 8.77139C24.6337 8.77069 25.1587 8.2453 25.1577 7.5976C25.1587 6.94991 24.6337 6.42442 23.9857 6.42372ZM19.6558 8.1894C19.3008 8.1894 19.0158 8.47509 19.0158 8.82999V9.99987V11.0509H28.9506V9.99987V8.82999C28.9506 8.47509 28.6646 8.1894 28.3106 8.1894H26.5637C26.3687 9.02449 25.7817 9.68048 25.0287 9.99987H25.0407C25.0137 10.0099 24.9877 10.0199 24.9607 10.0289C24.9157 10.0469 24.8707 10.0649 24.8237 10.0799C24.7167 10.1159 24.6067 10.1439 24.4957 10.1659C24.4657 10.1719 24.4347 10.1749 24.4037 10.1799C24.2747 10.2009 24.1427 10.2129 24.0117 10.2149H23.9997C23.8717 10.2119 23.7447 10.2009 23.6187 10.1799C23.5877 10.1749 23.5557 10.1719 23.5247 10.1659C23.4087 10.1439 23.2937 10.1139 23.1817 10.0759C23.1457 10.0639 23.1107 10.0509 23.0757 10.0369C23.0427 10.0249 23.0107 10.0129 22.9787 9.99987H22.9937C22.2407 9.68048 21.6547 9.02449 21.4587 8.1894H19.6558ZM17.1558 13.3828C16.7958 13.3828 16.5058 13.6728 16.5058 14.0328V15.7518H14.7868C14.4268 15.7518 14.1368 16.0418 14.1368 16.4018C14.1368 16.7628 14.4268 17.0508 14.7868 17.0508H16.5058V18.7698C16.5058 19.1298 16.7958 19.4198 17.1558 19.4198C17.5158 19.4198 17.8048 19.1298 17.8048 18.7698V17.0508H19.5228C19.8828 17.0508 20.1737 16.7618 20.1737 16.4018C20.1737 16.0418 19.8828 15.7518 19.5228 15.7518H17.8048V14.0328C17.8048 13.6728 17.5158 13.3828 17.1558 13.3828ZM13.9378 23.9997V25.3747H34.0606V23.9997H13.9378ZM13.9378 27.9996V29.3746H34.0606V27.9996H13.9378ZM13.9378 31.9996V33.3746H34.0606V31.9996H13.9378ZM13.9378 35.9995V37.3745H26.6227V35.9995H13.9378Z" fill="#333333"/>
</svg>

<?xml version="1.0" encoding="UTF-8" standalone="no"?>
<!-- Created with Inkscape (http://www.inkscape.org/) -->
<svg id="svg8" xmlns:rdf="http://www.w3.org/1999/02/22-rdf-syntax-ns#" xmlns="http://www.w3.org/2000/svg" xmlns:osb="http://www.openswatchbook.org/uri/2009/osb" height="48" width="48" version="1.1" xmlns:cc="http://creativecommons.org/ns#" viewBox="0 0 12.7 12.7" xmlns:dc="http://purl.org/dc/elements/1.1/">
 <title id="title4753">UIO-icon</title>
 <metadata id="metadata5">
  <rdf:RDF>
   <cc:Work rdf:about="">
    <dc:format>image/svg+xml</dc:format>
    <dc:type rdf:resource="http://purl.org/dc/dcmitype/StillImage"/>
    <dc:title>UIO-icon</dc:title>
    <dc:creator>
     <cc:Agent>
      <dc:title>Joaquín Urbano</dc:title>
     </cc:Agent>
    </dc:creator>
    <dc:rights>
     <cc:Agent>
      <dc:title>GPL</dc:title>
     </cc:Agent>
    </dc:rights>
   </cc:Work>
  </rdf:RDF>
 </metadata>
 <g id="layer1" fill="#333" transform="translate(0,-284.3)">
  <path id="rect4810" d="m0 0v48h48v-48h-48zm24.029 4.9727c1.4 0.0015 2.553 1.1015 2.619 2.5h2.038c0.589 0 1.062 0.4752 1.062 1.0644v0.2383h6.391c1.029 0 1.857 0.8278 1.857 1.8576v30.535c0 1.03-0.828 1.859-1.857 1.859h-24.278c-1.029 0-1.859-0.829-1.859-1.859v-30.535c0-1.0298 0.83-1.8576 1.859-1.8576h6.389v-0.2383c0-0.5892 0.473-1.0644 1.062-1.0644h2.098c0.067-1.3985 1.219-2.4985 2.619-2.5zm-0.043 1.4511c-0.648-0.0004-1.174 0.5254-1.174 1.1739 0 0.6484 0.526 1.1742 1.174 1.1738 0.648-0.0007 1.173-0.5261 1.172-1.1738 0.001-0.6477-0.524-1.1732-1.172-1.1739zm-4.33 1.7657c-0.355 0-0.64 0.2857-0.64 0.6406v1.1699 1.051h9.935v-1.051-1.1699c0-0.3549-0.286-0.6406-0.64-0.6406h-1.747c-0.195 0.8351-0.782 1.4911-1.535 1.8105h0.012c-0.027 0.01-0.053 0.02-0.08 0.029-0.045 0.018-0.09 0.036-0.137 0.051-0.107 0.036-0.217 0.064-0.328 0.086-0.03 0.006-0.061 0.009-0.092 0.014-0.129 0.021-0.261 0.033-0.392 0.035h-0.012c-0.128-0.003-0.255-0.014-0.381-0.035-0.031-0.005-0.063-0.008-0.094-0.014-0.116-0.022-0.231-0.052-0.343-0.09-0.036-0.012-0.071-0.025-0.106-0.039-0.033-0.012-0.065-0.024-0.097-0.037h0.015c-0.753-0.3194-1.339-0.9754-1.535-1.8105h-1.803zm-2.5 5.1935c-0.36 0-0.65 0.29-0.65 0.65v1.719h-1.719c-0.36 0-0.65 0.29-0.65 0.65 0 0.361 0.29 0.649 0.65 0.649h1.719v1.719c0 0.36 0.29 0.65 0.65 0.65s0.649-0.29 0.649-0.65v-1.719h1.718c0.36 0 0.651-0.289 0.651-0.649s-0.291-0.65-0.651-0.65h-1.718v-1.719c0-0.36-0.289-0.65-0.649-0.65zm-3.218 10.617v1.375h20.123v-1.375h-20.123zm0 4v1.375h20.123v-1.375h-20.123zm0 4v1.375h20.123v-1.375h-20.123zm0 4v1.375h12.685v-1.375h-12.685z" fill-rule="evenodd" transform="matrix(.26458 0 0 .26458 0 284.3)"/>
 </g>
</svg>
